X: 18
M:6/8
L:1/16
K:Bb
dc|BAGABG AGFGAF|D2G2G2 G2^F2G2|AGABcB A2G2F2|cAdcAG F2G2A2|
ga|bagabg ag^fgaf|d2g2g2 g2^f2g2|a2abab a2g2f2|c'2a2ag f2g2a2|
bagabg ag^fgag|f2d2B2 g2c'2ag|f2d2c2 A2G2F2|A2G2G2 G4||
g2|gbag^fa gbagfa|g2d2B2 g2d2B2|fgagfe f2g2a2|f2c2A2 f2c2A2|
g2e2c2 a2f2d2|b2g2b2 d'2a2g2|f2d2c2 A2G2F2|A2G2G2 G4||
dcedcd B2G2G2|AFDEFG A2B2c2|dcdefe dcBAGF|D2G2G2 G4||

